assets/icons/functional/maps&travel/rocket-launch.svg

<svg width="32" height="32" viewBox="0 0 32 32" fill="none" xmlns="http://www.w3.org/2000/svg"><g id="Icon-RocketLaunch"><g clip-path="url(#clip0_10_1439)"><g id="size=md (32px)"><g id="RocketLaunch"><path id="Vector" d="M11.7625 23.075C10.3375 27.3125 4.6875 27.3125 4.6875 27.3125C4.6875 27.3125 4.6875 21.6625 8.925 20.2375" stroke="#101828" stroke-width="2" stroke-linecap="round" stroke-linejoin="round"/><path id="Vector_2" d="M24.4874 13.175L15.9999 21.6625L10.3374 16L18.8249 7.51247C22.0374 4.29997 25.2499 4.33747 26.6249 4.53747C26.8371 4.56578 27.034 4.66312 27.1854 4.81448C27.3368 4.96584 27.4341 5.1628 27.4624 5.37497C27.6624 6.74997 27.6999 9.96247 24.4874 13.175Z" stroke="#101828" stroke-width="2" stroke-linecap="round" stroke-linejoin="round"/><path id="Vector_3" d="M23.075 14.5875V22.6625C23.0712 22.9263 22.9634 23.1779 22.775 23.3625L18.7375 27.4125C18.6094 27.5405 18.449 27.6312 18.2733 27.6752C18.0977 27.7191 17.9134 27.7145 17.7402 27.6619C17.567 27.6092 17.4113 27.5106 17.2897 27.3764C17.1682 27.2422 17.0853 27.0776 17.05 26.9L16 21.6625" stroke="#101828" stroke-width="2" stroke-linecap="round" stroke-linejoin="round"/><path id="Vector_4" d="M17.4124 8.92499H9.33741C9.07364 8.92874 8.82204 9.03657 8.63741 9.22499L4.58741 13.2625C4.45946 13.3906 4.36869 13.551 4.32478 13.7266C4.28087 13.9023 4.28547 14.0866 4.33808 14.2598C4.39069 14.433 4.48934 14.5887 4.62351 14.7103C4.75768 14.8318 4.92234 14.9147 5.09991 14.95L10.3374 16" stroke="#101828" stroke-width="2" stroke-linecap="round" stroke-linejoin="round"/></g></g></g></g><defs><clipPath id="clip0_10_1439"><rect width="32" height="32" rx="5" fill="white"/></clipPath></defs></svg>

<svg xmlns="http://www.w3.org/2000/svg" width="32" height="32" fill="none"><path stroke="#101828" stroke-linecap="round" stroke-linejoin="round" stroke-width="2" d="M11.762 23.075c-1.425 4.238-7.075 4.238-7.075 4.238s0-5.65 4.238-7.075m15.563-7.063L16 21.663 10.338 16l8.487-8.488c3.213-3.212 6.425-3.174 7.8-2.974a.975.975 0 0 1 .837.837c.2 1.375.238 4.588-2.974 7.8Z"/><path stroke="#101828" stroke-linecap="round" stroke-linejoin="round" stroke-width="2" d="M23.075 14.588v8.075a1 1 0 0 1-.3.7l-4.037 4.05a1 1 0 0 1-1.688-.513L16 21.663m1.413-12.738H9.338a1 1 0 0 0-.7.3l-4.05 4.037A1 1 0 0 0 5.1 14.95L10.338 16"/></svg>
